X: 27729
T: Morning Lark, The
R: jig
M: 6/8
K: Dmajor
ADD DED|DEDA2d|BGG dGG|BdB BAB|
ADD DED DEDA2B|def gfe|edcd3:|
Add fdd|add fdd|Add fdd|efe edB|
Add fdd|add fdd|faf gfe|edcd3:|

